usr/share/icons/biglinux-icons-material/symbolic/status/channel-insecure-symbolic.svg

<svg width="16" height="16" version="1.1" xmlns="http://www.w3.org/2000/svg">
 <path d="m8 0c-2.216 0-4 1.784-4 4v0.885l1 1v-1.885c0-1.662 1.338-3 3-3 1.662 0 3 1.338 3 3v2h-5.885l1 1h5.885c0.554 0 1 0.446 1 1v5a0.984 0.984 0 0 1-0.246 0.639l0.715 0.714c0.328-0.356 0.531-0.829 0.531-1.353v-5c0-1.108-0.892-2-2-2v-2c0-2.216-1.784-4-4-4zm-4.56 6.09a1.988 1.988 0 0 0-1.44 1.91v5c0 1.108 0.892 2 2 2h8c0.109 0 0.214-0.015 0.318-0.031l-0.968-0.969h-7.35c-0.554 0-1-0.446-1-1v-5c0-0.554 0.446-1 1-1h0.35z" fill="#dedede"/>
 <path class="error" d="M1.44.56l-.883.882 14 14 .883-.882z" color="#bebebe" fill="#c6262e" overflow="visible" style="isolation:auto;mix-blend-mode:normal"/>
</svg>

<svg xmlns="http://www.w3.org/2000/svg" width="16" height="16"><path fill="#dedede" d="M8 0C5.784 0 4 1.784 4 4v.885l1 1V4c0-1.662 1.338-3 3-3s3 1.338 3 3v2H5.115l1 1H12c.554 0 1 .446 1 1v5a.984.984 0 0 1-.246.639l.715.714c.328-.356.531-.829.531-1.353V8c0-1.108-.892-2-2-2V4c0-2.216-1.784-4-4-4zM3.44 6.09A1.988 1.988 0 0 0 2 8v5c0 1.108.892 2 2 2h8c.109 0 .214-.015.318-.031L11.35 14H4c-.554 0-1-.446-1-1V8c0-.554.446-1 1-1h.35z"/><path fill="#c6262e" d="m1.44.56-.883.882 14 14 .883-.882z" class="error" color="#bebebe" overflow="visible" style="isolation:auto;mix-blend-mode:normal"/></svg>
